img/svg/vk.svg

<svg width="18" height="11" viewBox="0 0 18 11" fill="none" xmlns="http://www.w3.org/2000/svg">
<path d="M14.9368 6.02122C14.6458 5.6537 14.729 5.4902 14.9368 5.16169C14.9405 5.15794 17.3428 1.83832 17.5904 0.712532L17.5919 0.711782C17.7149 0.301518 17.5919 7.62939e-06 16.9971 7.62939e-06H15.029C14.528 7.62939e-06 14.297 0.258767 14.1732 0.548277C14.1732 0.548277 13.1712 2.94686 11.7537 4.50166C11.2961 4.95093 11.0846 5.09493 10.8349 5.09493C10.7119 5.09493 10.5206 4.95093 10.5206 4.54067V0.711782C10.5206 0.219765 10.3804 7.62939e-06 9.9656 7.62939e-06H6.87099C6.55673 7.62939e-06 6.36997 0.229516 6.36997 0.443273C6.36997 0.909789 7.07875 1.01704 7.15225 2.32959V5.17744C7.15225 5.80146 7.03899 5.91621 6.78774 5.91621C6.11871 5.91621 4.49491 3.50788 3.53262 0.751534C3.33837 0.216765 3.14861 0.000757601 2.64384 0.000757601H0.675023C0.113254 0.000757601 0 0.259517 0 0.549027C0 1.06054 0.669023 3.60388 3.11111 6.964C4.73866 9.25758 7.03074 10.5004 9.11582 10.5004C10.3691 10.5004 10.5221 10.2244 10.5221 9.7496C10.5221 7.55802 10.4089 7.35101 11.0366 7.35101C11.3276 7.35101 11.8287 7.49502 12.9987 8.60131C14.336 9.9131 14.5558 10.5004 15.3043 10.5004H17.2723C17.8334 10.5004 18.1176 10.2244 17.9541 9.67984C17.5799 8.53455 15.0508 6.17872 14.9368 6.02122Z" fill="black"/>
</svg>

<svg width="18" height="11" viewBox="0 0 18 11" fill="none" xmlns="http://www.w3.org/2000/svg"><path d="M14.937 6.021c-.291-.367-.208-.53 0-.86.004-.003 2.406-3.323 2.653-4.448l.002-.001c.123-.41 0-.712-.595-.712H15.03c-.501 0-.732.259-.856.548 0 0-1.002 2.399-2.42 3.954-.457.449-.668.593-.918.593-.123 0-.314-.144-.314-.554V.71C10.52.22 10.38 0 9.966 0H6.87c-.314 0-.501.23-.501.443 0 .467.709.574.782 1.887v2.847c0 .624-.113.74-.364.74-.67 0-2.293-2.41-3.255-5.165C3.338.217 3.149 0 2.643 0H.676C.113 0 0 .26 0 .549c0 .512.669 3.055 3.111 6.415C4.74 9.258 7.031 10.5 9.116 10.5c1.253 0 1.406-.276 1.406-.75 0-2.192-.113-2.399.515-2.399.29 0 .792.144 1.962 1.25 1.337 1.312 1.557 1.9 2.305 1.9h1.968c.561 0 .846-.277.682-.821-.374-1.145-2.903-3.501-3.017-3.659z" fill="#000"/></svg>
